client/public/assets/icons/doctype/folder.svg

<svg id="folder" xmlns="http://www.w3.org/2000/svg" width="56" height="64" viewBox="0 0 56 64"><path d="M51.48,15.46A4.52,4.52,0,0,1,56,20V51a4.52,4.52,0,0,1-4.52,4.52h-47A4.52,4.52,0,0,1,0,51H0V13A4.52,4.52,0,0,1,4.52,8.52H16c3.82,0,4.23,1.14,6.74,4.45,2.07,2.74,7.11,2.49,10.39,2.49Z" fill="#003462"/><path d="M51.48,18.12H9.24a4.52,4.52,0,0,0-4.52,4.52v2.84L9.19,19H51.54L56,25.49V22.64A4.52,4.52,0,0,0,51.48,18.12Z" fill="#87c8f2"/><path d="M4.57,55.48H51.48A4.52,4.52,0,0,0,56,51V23.48A4.52,4.52,0,0,0,51.48,19H9.25a4.52,4.52,0,0,0-4.52,4.52V51a4.65,4.65,0,0,1-.06.72,2.33,2.33,0,0,1-4.6,0A4.5,4.5,0,0,0,4.57,55.48Z" fill="#00a1e0"/></svg>

<?xml version="1.0"?><svg xmlns="http://www.w3.org/2000/svg" width="56" height="64" viewBox="0 0 56 64"><path d="m51.5 15.5a4.5 4.5 0 0 1 4.5 4.5v31a4.5 4.5 0 0 1-4.5 4.5h-47a4.5 4.5 0 0 1-4.5-4.5v-38a4.5 4.5 0 0 1 4.5-4.5h11.5c3.8 0 4.2 1.2 6.7 4.5 2.1 2.7 7.2 2.5 10.4 2.5z" fill="#003462"></path><path d="m51.5 18.1h-42.3a4.5 4.5 0 0 0-4.5 4.5v2.9l4.5-6.5h42.3l4.5 6.5v-2.9a4.5 4.5 0 0 0-4.5-4.5z" fill="#87c8f2"></path><path d="m4.6 55.5h46.9a4.5 4.5 0 0 0 4.5-4.5v-27.5a4.5 4.5 0 0 0-4.5-4.5h-42.2a4.5 4.5 0 0 0-4.6 4.5v27.5a4.7 4.7 0 0 1 0 0.7 2.3 2.3 0 0 1-4.6 0 4.5 4.5 0 0 0 4.5 3.8z" fill="#00a1e0"></path></svg>
